resources/svg/help-option.svg

<svg xmlns="http://www.w3.org/2000/svg" viewBox="0 0 24 24" fill="currentColor"><path fill-rule="evenodd" clip-rule="evenodd" d="M2 7C2 4.23858 4.23858 2 7 2H17C19.7614 2 22 4.23858 22 7V17C22 19.7614 19.7614 22 17 22H7C4.23858 22 2 19.7614 2 17V7ZM7 4C5.34315 4 4 5.34315 4 7V17C4 18.6569 5.34315 20 7 20H17C18.6569 20 20 18.6569 20 17V7C20 5.34315 18.6569 4 17 4H7ZM12 7.5C10.5523 7.5 10 8.55229 10 9C10 9.55229 9.55228 10 9 10C8.44772 10 8 9.55229 8 9C8 7.44772 9.44771 5.5 12 5.5C13.1557 5.5 14.1702 5.78891 14.9085 6.43492C15.6643 7.09623 16 8.01748 16 9C16 10.1875 15.6945 11.0279 15.1178 11.6677C14.8502 11.9645 14.5539 12.1844 14.2896 12.3608C14.1648 12.4442 14.0375 12.524 13.9223 12.5962L13.9043 12.6075C13.7803 12.6853 13.6678 12.7561 13.5575 12.8302C13.2061 13.0662 13.0643 13.2421 13.0061 13.3563C12.9615 13.4436 12.9296 13.5614 12.9786 13.7942C13.0922 14.3347 12.7462 14.865 12.2058 14.9786C11.6653 15.0922 11.135 14.7462 11.0214 14.2058C10.8952 13.6054 10.938 13.0088 11.2247 12.4472C11.4975 11.9124 11.9434 11.505 12.4425 11.1698C12.5822 11.076 12.7197 10.9896 12.8418 10.9131L12.851 10.9073C12.9733 10.8306 13.0787 10.7646 13.1791 10.6975C13.3836 10.561 13.5248 10.4478 13.6322 10.3286C13.8055 10.1363 14 9.81253 14 9C14 8.48252 13.8357 8.15377 13.5915 7.94008C13.3298 7.71109 12.8443 7.5 12 7.5ZM12 15.7812C11.4477 15.7812 11 16.229 11 16.7812C11 17.3335 11.4477 17.7812 12 17.7812C12.5523 17.7812 13 17.3335 13 16.7812C13 16.229 12.5523 15.7812 12 15.7812Z" fill="black"/></svg>

<svg viewBox="0 0 24 24"><g fill="none"><path fill-rule="evenodd" clip-rule="evenodd" d="M2 7a5 5 0 0 1 5-5h10a5 5 0 0 1 5 5v10a5 5 0 0 1-5 5H7a5 5 0 0 1-5-5V7zm5-3a3 3 0 0 0-3 3v10a3 3 0 0 0 3 3h10a3 3 0 0 0 3-3V7a3 3 0 0 0-3-3H7zm5 3.5c-1.448 0-2 1.052-2 1.5a1 1 0 1 1-2 0c0-1.552 1.448-3.5 4-3.5c1.156 0 2.17.289 2.909.935C15.664 7.096 16 8.017 16 9c0 1.188-.306 2.028-.882 2.668a4.313 4.313 0 0 1-.828.693a14.92 14.92 0 0 1-.368.235l-.018.011c-.124.078-.236.15-.347.223c-.35.236-.493.412-.55.526c-.046.088-.077.205-.028.438a1 1 0 0 1-1.958.412c-.126-.6-.083-1.197.204-1.759c.273-.535.718-.942 1.218-1.277c.14-.094.277-.18.399-.257l.009-.006c.122-.076.228-.142.328-.21c.205-.136.346-.25.453-.368c.174-.193.368-.516.368-1.329c0-.517-.164-.846-.409-1.06c-.261-.229-.747-.44-1.591-.44zm0 8.281a1 1 0 1 0 0 2a1 1 0 0 0 0-2z" fill="currentColor"/></g></svg>
